!!!COM:	Martini, Johannes
!!!CDT:	~1440///-~1497//
!!!OTL:	Fuge la morie
!!!AGN:	Song; Chanson
!!!SCT:	Mar3009
!!!SCA:	Mar3009
!!!voices:	3
**kern	**kern	**kern
*staff3	*staff2	*staff1
*Ivox	*Ivox	*Ivox
*I"Bassus	*I"Tenor	*I"Cantus
*I'B	*I'T	*I'Cn
*clefF4	*clefGv2	*clefG2
*k[b-]	*k[b-]	*k[b-]
*M2/1	*M2/1	*M2/1
*met(C|)	*met(C|)	*met(C|)
=1-	=1-	=1-
0r	0r	1g
.	.	1f
=2	=2	=2
0r	0r	2.g/
.	.	4a/
.	.	2b-\
.	.	2cc\
=3	=3	=3
0r	1r	1a
.	1G	2g/
.	.	[2b-\
=4	=4	=4
0r	1F	2b-\]
.	.	2a/
.	2.G/	2g/
.	.	[2b-\
.	4A/	.
=5	=5	=5
0r	2B-\	4b-\]
.	.	4a/
.	2c\	1g
.	1A	.
.	.	2f#i/
=6	=6	=6
1GG	2G/	1g
.	1B-	.
1FF	.	1r
.	2A/	.
=7	=7	=7
2.GG/	2G/	0r
.	2.B-\	.
4AA/	.	.
2BB-/	.	.
.	4A/	.
2C/	[2G/	.
=8	=8	=8
1AA	2G/]	1a
.	2F#i/	.
1GG	1G	1b-
=9	=9	=9
1D	2F/	2a/
.	2D/	2f/
1C	1E	1g
=10	=10	=10
2.D\	1D	2.f/
4E\	.	4e/
2F\	2r	1d
2G\	[2d\	.
=11	=11	=11
1E	2d\]	2r
.	2c\	1g
1D	2d\	.
.	[2f\	2f/
=12	=12	=12
1G	2f\]	2g/
.	2e\	1b-
1F	1f	.
.	.	2a/
=13	=13	=13
2.G\	1B-	1b-
4A\	.	.
2B-\	1r	2r
2c\	.	2g/
=14	=14	=14
1A	1c	2a/
.	.	2cc\
1G	[1d	2b-\
.	.	[2dd\
=15	=15	=15
1r	0d]	4dd\]
.	.	4cc\
.	.	2.b-\
2.GG/	.	.
.	.	4a/
.	.	[2g/
4AA/	.	.
=16	=16	=16
2BB-/	[0G	4g/]
.	.	4f/
1C	.	4e/
.	.	4d/
.	.	2e/
2BB-/	.	2d/
=17	=17	=17
2C/	1G]	2e/
2E-i\	.	1g
1D	1A	.
.	.	2f#i/
=18	=18	=18
1GG	1G	1g
2.D\	2.F/	2r
.	.	[2a/
4E\	4G/	.
=19	=19	=19
2F\	2A/	2a/]
1G	1B-	2d/
.	.	2e/
2F\	2A/	2f/
=20	=20	=20
2G\	2B-\	1d
2B-\	1d	.
1A	.	1e
.	2c#i\	.
=21	=21	=21
1D	1d	1d
2r	1B-	2f/
[2G\	.	2g/
=22	=22	=22
2G\]	1A	2.a/
2F\	.	.
.	.	4b-\
2E\	1r	2cc\
2D\	.	[2dd\
=23	=23	=23
1F	1A	2dd\]
.	.	2cc\
1BB-	2B-\	2dd\
.	4A/	4cc\
.	4G/	4b-\
=24	=24	=24
2r	1F	1a
1D	.	.
.	2D/	2f/
2C/	2E/	2g/
=25	=25	=25
2BB-/	2G/	2b-\
2AA/	2.A/	2cc\
1D	.	1a
.	4E/	.
.	2F/	.
=26	=26	=26
1GG	1G	2g/
.	.	1b-
2r	1E	.
2G\	.	4a/
.	.	4g/
=27	=27	=27
2A\	1D	1f
1B-	.	.
.	2r	1b-
4A\	[2G/	.
4G\	.	.
=28	=28	=28
1A	2G/]	1cc
.	2F/	.
1G	2G/	2b-\
.	[2B-\	[2g/
=29	=29	=29
2r	2B-\]	2g/]
2D\	2A/	2f/
2E\	2G/	2g/
[2F\	[2c\	[2a/
=30	=30	=30
2F\]	4c\]	2a/]
.	4A/	.
4E\	1d	4g/
4D\	.	4f/
1E	.	1g
.	2c#i\	.
=31	=31	=31
0D;	0d;	0f;
=32	=32	=32
1r	1G	0r
2G\	2B-\	.
2A\	2c\	.
=33	=33	=33
4B-\	1d	0r
4A\	.	.
4G\	.	.
4F\	.	.
1E	2G/	.
.	2c\	.
=34	=34	=34
1D	2B-\	0r
.	2.A/	.
2C/	.	.
.	4G/	.
2D\	[2B-\	.
=35	=35	=35
4E-i\	2B-\]	0r
4D\	.	.
4C/	4A/	.
4BB-/	4G/	.
1AA	2.F#i/	.
.	4E/	.
=36	=36	=36
1GG	1G	1d
1r	2A/	2f/
.	2B-\	2g/
=37	=37	=37
0r	2c\	1a
.	2.d\	.
.	.	2d/
.	4c\	.
.	2B-\	2g/
=38	=38	=38
0r	2A/	2f/
.	2.G/	2.e/
.	4F/	4d/
.	[2A/	[2f/
=39	=39	=39
0r	2A/]	2f/]
.	4G/	4e/
.	4F/	4d/
.	1E	1c#i
=40	=40	=40
2r	1D	0d
2.D\	.	.
.	1A	.
4E\	.	.
2F\	.	.
=41	=41	=41
2G\	2B-\	1r
2.C/	1c	.
.	.	1g
4D\	.	.
2E\	2B-\	.
=42	=42	=42
2F\	2A/	0f
2.BB-/	1B-	.
4C/	.	.
2D\	2A/	.
=43	=43	=43
2E\	2G/	0e
2.AA/	1A	.
4BB-/	.	.
2C/	2G/	.
=44	=44	=44
2D\	2F/	1d
2.GG/	1G	.
.	.	1dd
4AA/	.	.
2BB-/	2F/	.
=45	=45	=45
2C/	2E/	1cc
2.FF/	1F	.
.	.	1a
4GG/	.	.
4AA/	[2c\	.
4BB-/	.	.
=46	=46	=46
2C/	2c\]	2g/
2.GG/	1d	2.b-\
4AA/	.	4a/
4BB-/	4c\	2g/
4C/	4B-\	.
=47	=47	=47
2D\	2A/	2f/
2.BB-/	2B-\	4g/
.	.	4a/
.	1d	2b-\
4C/	.	.
4D\	.	[2a/
4E\	.	.
=48	=48	=48
2F\	2.c\	2a/]
2.C/	.	4g/
.	4B-\	4f/
.	2.G/	1e
4D\	.	.
4E\	.	.
4F\	4A/	.
=49	=49	=49
2G\	2.B-\	2.d/
2.D\	.	.
.	4A/	4e/
.	1F	4f/
4E\	.	4g/
4F\	.	[2a/
4G\	.	.
=50	=50	=50
2A\	2r	4a/]
.	.	4b-\
2F\	2A/	2cc\
2G\	2B-\	2b-\
[2F\	[2c\	[2a/
=51	=51	=51
4F\]	4c\]	4a/]
4G\	4B-\	4g/
2E\	4A/	1g
.	4G/	.
1D	1A	.
.	.	2f#i/
=52	=52	=52
0GGl	0Gl	0gl
==	==	==
*-	*-	*-
!!!RDF**kern: l=long note in original notation
!!!RDF**kern: i=editorial accidental
!!!ENC:	Chris Gage 10-30-2014
!!!END:	2015/03/01/
!!!EED:	Jesse Rodin
!!!EEV:	2015/03/05/
!!!ONB:	Translated from MusicXML and edited on 2015/03/05/ by Craig Sapp
!!muse2ps: C^@{COM}^i2I150v85,85,150Q16
